assets/images/jcb.svg

<svg enable-background="new 0 0 512 512" viewBox="0 0 512 512" xmlns="http://www.w3.org/2000/svg"><path d="m512 402.282c0 16.716-13.55 30.267-30.265 30.267h-451.47c-16.715 0-30.265-13.553-30.265-30.267v-292.565c0-16.716 13.55-30.266 30.265-30.266h451.469c16.716 0 30.265 13.551 30.265 30.266z" fill="#e7e8e3"/><path d="m51.785 432.547c-16.715.002-16.716-353.096-.001-353.096h-21.52c-16.714 0-30.264 13.552-30.264 30.266v292.563c0 16.716 13.55 30.267 30.265 30.267z" fill="#e7e8e3" opacity=".15"/><path d="m196.197 143.37h-53.654c-26.067 0-43.58 17.514-43.58 43.58v77.954c0 .038.004.077.011.115 2.057 9.774 12.302 17.143 23.83 17.143 12.727 0 22.322-8.942 22.322-20.802v-38.929h32.8v38.421c0 21.91-28.205 32.252-47.261 32.342-11.272-.047-22.318-3.509-30.307-9.502-.167-.125-.394-.146-.582-.052 0 0-.002.001-.004.002-.157-.079-.344-.081-.502-.002-.187.095-.306.287-.306.498v86.049c0 .307.248.557.557.557h55.174c19.452 0 42.061-18.373 42.061-42.061v-184.756c-.002-.309-.249-.557-.559-.557z" fill="#0f549d"/><path d="m304.016 143.37h-53.148c-26.474 0-43.58 16.908-43.58 43.077v44.036c0 .216.124.412.319.504.196.091.426.061.593-.077 4.639-3.868 12.118-8.478 21.408-8.478h57.148v10.396c-13.876-3.038-26.711-4.422-32.853-4.422-14.543 0-26.374 11.831-26.374 26.372l.004.161-.004.345c0 14.542 11.831 26.372 26.374 26.372 7.45 0 20.42-1.212 32.853-3.916v9.383h-57.148c-8.22 0-16.009-3.079-21.372-8.445-.161-.16-.4-.207-.607-.12-.209.086-.344.289-.344.514v91.112c0 .307.248.557.557.557h54.663c19.455 0 42.065-18.373 42.065-42.061v-184.753c.002-.309-.246-.557-.554-.557z" fill="#b41f36"/><g fill="#329947"><path d="m333.324 280.595c0 .307.25.557.557.557h23.789c6.387 0 12.202-5.816 12.202-12.2 0-6.383-5.816-12.198-12.202-12.198h-23.789c-.306 0-.557.249-.557.557z"/><path d="m413.352 143.37h-52.646c-14.013 0-25.4 4.739-33.017 13.08v-.001s-11.069 10.798-11.069 28.606v1.894 15.914 19.012c0 .307.248.557.557.557h63.781c8.752 0 16.148 7.396 16.148 16.149s-7.396 16.148-16.148 16.148c-.308 0-.557.249-.557.557s.248.557.557.557c9.904 0 17.665 6.871 17.665 15.642 0 8.918-7.595 15.643-17.665 15.643h-63.781c-.308 0-.557.249-.557.557v82.504c0 .307.248.557.557.557h54.669c19.453 0 42.063-18.373 42.063-42.061v-184.758c0-.309-.251-.557-.557-.557z"/><path d="m333.881 252.299h23.789c6.339 0 11.694-5.355 11.694-11.694 0-6.384-5.813-12.199-12.196-12.199h-23.287c-.306 0-.557.249-.557.557v22.78c0 .307.25.556.557.556z"/></g></svg>

<svg xmlns="http://www.w3.org/2000/svg" width="512" height="353.098" viewBox="0 0 512 353.098"><g transform="translate(0 -79.451)"><path d="M512,402.282a30.266,30.266,0,0,1-30.265,30.267H30.265A30.267,30.267,0,0,1,0,402.282V109.717A30.265,30.265,0,0,1,30.265,79.451H481.734A30.265,30.265,0,0,1,512,109.717Z" fill="#e7e8e3"/><path d="M51.785,432.547c-16.715,0-16.716-353.1,0-353.1H30.264A30.266,30.266,0,0,0,0,109.717V402.28a30.266,30.266,0,0,0,30.265,30.267Z" fill="#e7e8e3" opacity="0.15"/><path d="M196.2,143.37H142.543c-26.067,0-43.58,17.514-43.58,43.58V264.9a.639.639,0,0,0,.011.115c2.057,9.774,12.3,17.143,23.83,17.143,12.727,0,22.322-8.942,22.322-20.8V222.431h32.8v38.421c0,21.91-28.205,32.252-47.261,32.342-11.272-.047-22.318-3.509-30.307-9.5a.559.559,0,0,0-.582-.052l0,0a.555.555,0,0,0-.808.5v86.049a.557.557,0,0,0,.557.557H154.7c19.452,0,42.061-18.373,42.061-42.061V143.927a.558.558,0,0,0-.559-.557Z" fill="#0f549d"/><path d="M304.016,143.37H250.868c-26.474,0-43.58,16.908-43.58,43.077v44.036a.555.555,0,0,0,.912.427c4.639-3.868,12.118-8.478,21.408-8.478h57.148v10.4c-13.876-3.038-26.711-4.422-32.853-4.422a26.4,26.4,0,0,0-26.374,26.372l0,.161,0,.345A26.4,26.4,0,0,0,253.9,281.656a172.074,172.074,0,0,0,32.853-3.916v9.383H229.608a30.26,30.26,0,0,1-21.372-8.445.558.558,0,0,0-.951.394v91.112a.557.557,0,0,0,.557.557h54.663c19.455,0,42.065-18.373,42.065-42.061V143.927a.552.552,0,0,0-.554-.557Z" fill="#b41f36"/><path d="M333.324,280.6a.558.558,0,0,0,.557.557H357.67a12.2,12.2,0,1,0,0-24.4H333.881a.558.558,0,0,0-.557.557Z" fill="#329947"/><path d="M413.352,143.37H360.706c-14.013,0-25.4,4.739-33.017,13.08h0a42.417,42.417,0,0,0-11.069,28.606v36.82a.557.557,0,0,0,.557.557h63.781a16.148,16.148,0,0,1,0,32.3.557.557,0,0,0,0,1.114c9.9,0,17.665,6.871,17.665,15.642,0,8.918-7.6,15.643-17.665,15.643H317.177a.557.557,0,0,0-.557.557v82.5a.557.557,0,0,0,.557.557h54.669c19.453,0,42.063-18.373,42.063-42.061V143.927a.557.557,0,0,0-.557-.557Z" fill="#329947"/><path d="M333.881,252.3H357.67A11.85,11.85,0,0,0,369.364,240.6a12.68,12.68,0,0,0-12.2-12.2H333.881a.558.558,0,0,0-.557.557v22.78A.557.557,0,0,0,333.881,252.3Z" fill="#329947"/></g></svg>
